X: 11
T: New Yer
T: for three
C: Richard Schweitzer, CC BY-NC-SA 3.0
P: One dance: AA BBB CCC DDD E
N: Permission granted to copy within the SCA.
K: G major
M: 6/8
L: 1/8
P: A
"^Drone G/D"d3 B2A | G2F G3 | E2G FA2 | G6 :: \
P: B (3x)
A2G FG2 | AB2 "^        (3)"G3 :: 
P: C (3x)
G2E2F2 | G2G2 "^         (3)"G2:: \
P: D
A2G FE2 | D6 "^(3)":| \
P: E
E2G FA2 | G6 |] 


